X:044
T:Dillon Brown (reel) 
B:CRE3.117 (DiolÃÂÃÂÃÂÃÂºn de BrÃÂÃÂÃÂÃÂºn)
F:file ID: cre.3/044dill_b
R:reel
M:C
L:1/8
Q:180
K:A
cB|AFEF A2Aa|fece f2af|ec^Bc aefe|BAFA BdcB|
AFEF A2ce|fece f2af|ec^Bc aefe|BA B/c/d A2:|
ed|ceAc eA c/B/A|BEGE BEAB|c2Ac c2Ac|BABc dcBA|
c2Ac c2Ac|BEGE BEGB|ABce fefa|ec B/c/d A2:|

%%%

